X: 29
M: C
L: 1/8
Q: 1/4=112
K: G
| "G"G3A (BABd) | (gdeB) (cBAG) | "C"(EA)(AB)    A2(GE) | "C"(EA)(AB)    A2GE |
  "G"G3A  BABd  |  gdeB   cBAG  | "C"(EG)(GA) "G"G2(ED) | "C"(EG)(GA) "G"G2    :|
|: (ga) \
| "G"b2(bg) "D7"a2(af) | "G"gfgd edBG |"Am"(ea)(ab)    a2(gd) |"Am"(ea)(ab)    a2ga |
  "G"b2(bg) "D7"a2(af) | "G"gfgd edBG | "C"(EG)(GA) "G"G2(ED) | "C"(EG)(GA) "G"G2  :|


